assets/icons/qvision/pie_chart.svg

<svg xmlns="http://www.w3.org/2000/svg" height="24" viewBox="0 0 24 24" width="24"><path d="M0 0h24v24H0V0z" fill="none"/><path d="M11 2v20c-5.07-.5-9-4.79-9-10s3.93-9.5 9-10zm2.03 0v8.99H22c-.47-4.74-4.24-8.52-8.97-8.99zm0 11.01V22c4.74-.47 8.5-4.25 8.97-8.99h-8.97z"/></svg>

<svg width="24" height="24" viewBox="0 0 24 24" fill="none" xmlns="http://www.w3.org/2000/svg">
<g clip-path="url(#clip0_147_2723)">
<path d="M11 2V22C5.93 21.5 2 17.21 2 12C2 6.79 5.93 2.5 11 2ZM13.03 2V10.99H22C21.53 6.25 17.76 2.47 13.03 2ZM13.03 13.01V22C17.77 21.53 21.53 17.75 22 13.01H13.03Z" fill="#323232"/>
</g>
<defs>
<clipPath id="clip0_147_2723">
<rect width="24" height="24" fill="white"/>
</clipPath>
</defs>
</svg>
